material/.icons/material/minus-box-multiple-outline.svg

<?xml version="1.0" encoding="UTF-8"?><!DOCTYPE svg PUBLIC "-//W3C//DTD SVG 1.1//EN" "http://www.w3.org/Graphics/SVG/1.1/DTD/svg11.dtd"><svg xmlns="http://www.w3.org/2000/svg" xmlns:xlink="http://www.w3.org/1999/xlink" version="1.1" id="mdi-minus-box-multiple-outline" width="24" height="24" viewBox="0 0 24 24"><path d="M18 11H10V9H18M20 4V16H8V4H20M20 2H8C6.9 2 6 2.9 6 4V16C6 17.11 6.9 18 8 18H20C21.11 18 22 17.11 22 16V4C22 2.9 21.11 2 20 2M4 6H2V20C2 21.11 2.9 22 4 22H18V20H4V6Z" /></svg>

<svg xmlns="http://www.w3.org/2000/svg" viewBox="0 0 24 24"><path d="M18 11h-8V9h8m2-5v12H8V4h12m0-2H8c-1.1 0-2 .9-2 2v12a2 2 0 002 2h12c1.11 0 2-.89 2-2V4a2 2 0 00-2-2M4 6H2v14a2 2 0 002 2h14v-2H4V6z"/></svg>
